hosted_logos/dailies_notes_assistant.svg

<?xml version="1.0" encoding="UTF-8" standalone="no"?>
<svg
   width="271.43945"
   height="176.4375"
   viewBox="0 0 271.43945 176.4375"
   version="1.1"
   id="svg31"
   sodipodi:docname="dailies_notes_assistant.svg"
   inkscape:version="1.4.2 (ebf0e940, 2025-05-08)"
   xmlns:inkscape="http://www.inkscape.org/namespaces/inkscape"
   xmlns:sodipodi="http://sodipodi.sourceforge.net/DTD/sodipodi-0.dtd"
   xmlns:xlink="http://www.w3.org/1999/xlink"
   xmlns="http://www.w3.org/2000/svg"
   xmlns:svg="http://www.w3.org/2000/svg">
  <sodipodi:namedview
     id="namedview31"
     pagecolor="#ffffff"
     bordercolor="#000000"
     borderopacity="0.25"
     inkscape:showpageshadow="2"
     inkscape:pageopacity="0.0"
     inkscape:pagecheckerboard="0"
     inkscape:deskcolor="#d1d1d1"
     inkscape:zoom="0.10833333"
     inkscape:cx="456.92308"
     inkscape:cy="115.38462"
     inkscape:current-layer="svg31" />
  <defs
     id="defs11">
    <g
       id="g11">
      <g
         id="glyph-0-0">
        <path
           d="m 11.8125,-38.875 v 34.015625 h 7.140625 c 6.039063,0 10.460937,-1.363281 13.265625,-4.09375 2.800781,-2.738281 4.203125,-7.0625 4.203125,-12.96875 0,-5.851563 -1.402344,-10.140625 -4.203125,-12.859375 -2.804688,-2.726562 -7.226562,-4.09375 -13.265625,-4.09375 z m -5.921875,-4.859375 h 12.15625 c 8.476563,0 14.695313,1.761719 18.65625,5.28125 3.96875,3.523437 5.953125,9.03125 5.953125,16.53125 0,7.542969 -1.996094,13.085937 -5.984375,16.625 C 32.691406,-1.765625 26.484375,0 18.046875,0 H 5.890625 Z m 0,0"
           id="path1" />
      </g>
      <g
         id="glyph-0-1">
        <path
           d="m 20.5625,-16.5 c -4.355469,0 -7.371094,0.5 -9.046875,1.5 C 9.835938,-14 9,-12.300781 9,-9.90625 c 0,1.917969 0.628906,3.4375 1.890625,4.5625 1.257813,1.125 2.972656,1.6875 5.140625,1.6875 2.988281,0 5.382812,-1.054688 7.1875,-3.171875 1.800781,-2.125 2.703125,-4.945313 2.703125,-8.46875 V -16.5 Z m 10.75,-2.21875 V 0 h -5.390625 v -4.984375 c -1.230469,1.992187 -2.761719,3.460937 -4.59375,4.40625 C 19.492188,0.367188 17.25,0.84375 14.59375,0.84375 c -3.367188,0 -6.039062,-0.9414062 -8.015625,-2.828125 -1.980469,-1.882813 -2.96875,-4.40625 -2.96875,-7.5625 0,-3.695313 1.234375,-6.484375 3.703125,-8.359375 2.46875,-1.875 6.15625,-2.8125 11.0625,-2.8125 h 7.546875 v -0.515625 c 0,-2.488281 -0.820313,-4.410156 -2.453125,-5.765625 -1.625,-1.351562 -3.914062,-2.03125 -6.859375,-2.03125 -1.875,0 -3.703125,0.226562 -5.484375,0.671875 -1.773438,0.449219 -3.480469,1.121094 -5.125,2.015625 v -4.96875 c 1.976562,-0.769531 3.894531,-1.34375 5.75,-1.71875 1.851562,-0.382812 3.660156,-0.578125 5.421875,-0.578125 4.738281,0 8.28125,1.234375 10.625,3.703125 2.34375,2.460938 3.515625,6.1875 3.515625,11.1875 z m 0,0"
           id="path2" />
      </g>
      <g
         id="glyph-0-2">
        <path
           d="m 5.65625,-32.8125 h 5.390625 V 0 H 5.65625 Z m 0,-12.78125 h 5.390625 v 6.828125 H 5.65625 Z m 0,0"
           id="path3" />
      </g>
      <g
         id="glyph-0-3">
        <path
           d="m 5.65625,-45.59375 h 5.390625 V 0 H 5.65625 Z m 0,0"
           id="path4" />
      </g>
      <g
         id="glyph-0-4">
        <path
           d="m 33.71875,-17.75 v 2.625 H 8.9375 c 0.226562,3.71875 1.34375,6.554688 3.34375,8.5 2.007812,1.9375 4.800781,2.90625 8.375,2.90625 2.070312,0 4.078125,-0.253906 6.015625,-0.765625 1.945313,-0.507813 3.878906,-1.269531 5.796875,-2.28125 v 5.09375 c -1.9375,0.824219 -3.921875,1.449219 -5.953125,1.875 -2.03125,0.425781 -4.09375,0.640625 -6.1875,0.640625 -5.230469,0 -9.375,-1.519531 -12.4375,-4.5625 C 4.835938,-6.769531 3.3125,-10.890625 3.3125,-16.078125 c 0,-5.375 1.445312,-9.640625 4.34375,-12.796875 2.90625,-3.15625 6.816406,-4.734375 11.734375,-4.734375 4.414063,0 7.90625,1.421875 10.46875,4.265625 2.570313,2.84375 3.859375,6.710938 3.859375,11.59375 z m -5.390625,-1.59375 c -0.04297,-2.945312 -0.871094,-5.296875 -2.484375,-7.046875 -1.605469,-1.757813 -3.734375,-2.640625 -6.390625,-2.640625 -3.011719,0 -5.421875,0.851562 -7.234375,2.546875 -1.804688,1.699219 -2.839844,4.089844 -3.109375,7.171875 z m 0,0"
           id="path5" />
      </g>
      <g
         id="glyph-0-5">
        <path
           d="M 26.578125,-31.84375 V -26.75 c -1.53125,-0.78125 -3.121094,-1.363281 -4.765625,-1.75 -1.636719,-0.394531 -3.328125,-0.59375 -5.078125,-0.59375 -2.679687,0 -4.6875,0.414062 -6.03125,1.234375 -1.335937,0.824219 -2,2.054687 -2,3.6875 0,1.25 0.476563,2.234375 1.4375,2.953125 0.957031,0.710938 2.878906,1.386719 5.765625,2.03125 l 1.84375,0.40625 c 3.832031,0.824219 6.550781,1.984375 8.15625,3.484375 1.613281,1.492187 2.421875,3.574219 2.421875,6.25 0,3.042969 -1.210937,5.453125 -3.625,7.234375 -2.40625,1.7734375 -5.71875,2.65625 -9.9375,2.65625 -1.761719,0 -3.59375,-0.171875 -5.5,-0.515625 C 7.367188,-0.00390625 5.363281,-0.515625 3.25,-1.203125 v -5.5625 c 1.988281,1.03125 3.953125,1.808594 5.890625,2.328125 1.9375,0.523438 3.851563,0.78125 5.75,0.78125 2.53125,0 4.476563,-0.429688 5.84375,-1.296875 1.375,-0.875 2.0625,-2.101563 2.0625,-3.6875 0,-1.46875 -0.496094,-2.59375 -1.484375,-3.375 -0.992188,-0.78125 -3.152344,-1.53125 -6.484375,-2.25 l -1.875,-0.4375 c -3.34375,-0.707031 -5.761719,-1.785156 -7.25,-3.234375 -1.480469,-1.457031 -2.21875,-3.457031 -2.21875,-6 0,-3.082031 1.09375,-5.460938 3.28125,-7.140625 2.1875,-1.6875 5.289063,-2.53125 9.3125,-2.53125 2,0 3.875,0.152344 5.625,0.453125 1.757813,0.292969 3.382813,0.730469 4.875,1.3125 z m 0,0"
           id="path6" />
      </g>
      <g
         id="glyph-0-6">
        <path
           d="m 5.890625,-43.734375 h 7.96875 L 33.25,-7.15625 V -43.734375 H 39 V 0 H 31.03125 L 11.625,-36.59375 V 0 H 5.890625 Z m 0,0"
           id="path7" />
      </g>
      <g
         id="glyph-0-7">
        <path
           d="m 18.375,-29.03125 c -2.898438,0 -5.183594,1.132812 -6.859375,3.390625 C 9.835938,-23.390625 9,-20.300781 9,-16.375 c 0,3.929688 0.832031,7.023438 2.5,9.28125 1.664062,2.25 3.957031,3.375 6.875,3.375 2.863281,0 5.132812,-1.128906 6.8125,-3.390625 1.6875,-2.269531 2.53125,-5.359375 2.53125,-9.265625 0,-3.882812 -0.84375,-6.960938 -2.53125,-9.234375 -1.679688,-2.28125 -3.949219,-3.421875 -6.8125,-3.421875 z m 0,-4.578125 c 4.6875,0 8.363281,1.527344 11.03125,4.578125 2.675781,3.042969 4.015625,7.261719 4.015625,12.65625 0,5.367188 -1.339844,9.578125 -4.015625,12.640625 C 26.738281,-0.679688 23.0625,0.84375 18.375,0.84375 c -4.710938,0 -8.398438,-1.523438 -11.0625,-4.578125 -2.667969,-3.0625 -4,-7.273437 -4,-12.640625 0,-5.394531 1.332031,-9.613281 4,-12.65625 2.664062,-3.050781 6.351562,-4.578125 11.0625,-4.578125 z m 0,0"
           id="path8" />
      </g>
      <g
         id="glyph-0-8">
        <path
           d="m 10.984375,-42.125 v 9.3125 H 22.09375 v 4.1875 H 10.984375 v 17.8125 c 0,2.679688 0.363281,4.398438 1.09375,5.15625 0.738281,0.761719 2.226563,1.140625 4.46875,1.140625 H 22.09375 V 0 H 16.546875 C 12.390625,0 9.519531,-0.773438 7.9375,-2.328125 6.351562,-3.878906 5.5625,-6.707031 5.5625,-10.8125 V -28.625 H 1.609375 v -4.1875 H 5.5625 v -9.3125 z m 0,0"
           id="path9" />
      </g>
      <g
         id="glyph-0-9">
        <path
           d="m 20.515625,-37.90625 -8.03125,21.765625 H 28.5625 Z m -3.34375,-5.828125 H 23.875 L 40.546875,0 h -6.15625 L 30.40625,-11.21875 H 10.6875 L 6.703125,0 H 0.46875 Z m 0,0"
           id="path10" />
      </g>
      <g
         id="glyph-0-10">
        <path
           d="M 32.9375,-19.8125 V 0 h -5.390625 v -19.625 c 0,-3.101562 -0.609375,-5.425781 -1.828125,-6.96875 -1.210938,-1.550781 -3.023438,-2.328125 -5.4375,-2.328125 -2.917969,0 -5.214844,0.933594 -6.890625,2.796875 -1.679687,1.855469 -2.515625,4.382812 -2.515625,7.578125 V 0 H 5.453125 V -32.8125 H 10.875 v 5.09375 c 1.28125,-1.96875 2.796875,-3.441406 4.546875,-4.421875 1.75,-0.976563 3.765625,-1.46875 6.046875,-1.46875 3.769531,0 6.625,1.167969 8.5625,3.5 1.9375,2.335937 2.90625,5.765625 2.90625,10.296875 z m 0,0"
           id="path11" />
      </g>
    </g>
  </defs>
  <g
     fill="#000000"
     fill-opacity="1"
     id="g17"
     transform="translate(-0.46875,-4.40625)">
    <use
       xlink:href="#glyph-0-0"
       x="0"
       y="50"
       id="use11" />
    <use
       xlink:href="#glyph-0-1"
       x="46.201172"
       y="50"
       id="use12" />
    <use
       xlink:href="#glyph-0-2"
       x="82.96875"
       y="50"
       id="use13" />
    <use
       xlink:href="#glyph-0-3"
       x="99.638672"
       y="50"
       id="use14" />
    <use
       xlink:href="#glyph-0-2"
       x="116.30859"
       y="50"
       id="use15" />
    <use
       xlink:href="#glyph-0-4"
       x="132.97852"
       y="50"
       id="use16" />
    <use
       xlink:href="#glyph-0-5"
       x="169.89258"
       y="50"
       id="use17" />
  </g>
  <g
     fill="#000000"
     fill-opacity="1"
     id="g22"
     transform="translate(-0.46875,-4.40625)">
    <use
       xlink:href="#glyph-0-6"
       x="0"
       y="120"
       id="use18" />
    <use
       xlink:href="#glyph-0-7"
       x="44.882812"
       y="120"
       id="use19" />
    <use
       xlink:href="#glyph-0-8"
       x="81.591797"
       y="120"
       id="use20" />
    <use
       xlink:href="#glyph-0-4"
       x="105.11719"
       y="120"
       id="use21" />
    <use
       xlink:href="#glyph-0-5"
       x="142.03125"
       y="120"
       id="use22" />
  </g>
  <g
     fill="#000000"
     fill-opacity="1"
     id="g31"
     transform="translate(-0.46875,-4.40625)">
    <use
       xlink:href="#glyph-0-9"
       x="0"
       y="180"
       id="use23" />
    <use
       xlink:href="#glyph-0-5"
       x="41.044922"
       y="180"
       id="use24" />
    <use
       xlink:href="#glyph-0-5"
       x="72.304688"
       y="180"
       id="use25" />
    <use
       xlink:href="#glyph-0-2"
       x="103.56445"
       y="180"
       id="use26" />
    <use
       xlink:href="#glyph-0-5"
       x="120.23438"
       y="180"
       id="use27" />
    <use
       xlink:href="#glyph-0-8"
       x="151.49414"
       y="180"
       id="use28" />
    <use
       xlink:href="#glyph-0-1"
       x="175.01953"
       y="180"
       id="use29" />
    <use
       xlink:href="#glyph-0-10"
       x="211.78711"
       y="180"
       id="use30" />
    <use
       xlink:href="#glyph-0-8"
       x="249.81445"
       y="180"
       id="use31" />
  </g>
</svg>

<?xml version="1.0" encoding="UTF-8"?>
<svg xmlns="http://www.w3.org/2000/svg" xmlns:xlink="http://www.w3.org/1999/xlink" width="920" height="240" viewBox="0 0 920 240">
<defs>
<g>
<g id="glyph-0-0">
<path d="M 11.8125 -38.875 L 11.8125 -4.859375 L 18.953125 -4.859375 C 24.992188 -4.859375 29.414062 -6.222656 32.21875 -8.953125 C 35.019531 -11.691406 36.421875 -16.015625 36.421875 -21.921875 C 36.421875 -27.773438 35.019531 -32.0625 32.21875 -34.78125 C 29.414062 -37.507812 24.992188 -38.875 18.953125 -38.875 Z M 5.890625 -43.734375 L 18.046875 -43.734375 C 26.523438 -43.734375 32.742188 -41.972656 36.703125 -38.453125 C 40.671875 -34.929688 42.65625 -29.421875 42.65625 -21.921875 C 42.65625 -14.378906 40.660156 -8.835938 36.671875 -5.296875 C 32.691406 -1.765625 26.484375 0 18.046875 0 L 5.890625 0 Z M 5.890625 -43.734375 "/>
</g>
<g id="glyph-0-1">
<path d="M 20.5625 -16.5 C 16.207031 -16.5 13.191406 -16 11.515625 -15 C 9.835938 -14 9 -12.300781 9 -9.90625 C 9 -7.988281 9.628906 -6.46875 10.890625 -5.34375 C 12.148438 -4.21875 13.863281 -3.65625 16.03125 -3.65625 C 19.019531 -3.65625 21.414062 -4.710938 23.21875 -6.828125 C 25.019531 -8.953125 25.921875 -11.773438 25.921875 -15.296875 L 25.921875 -16.5 Z M 31.3125 -18.71875 L 31.3125 0 L 25.921875 0 L 25.921875 -4.984375 C 24.691406 -2.992188 23.160156 -1.523438 21.328125 -0.578125 C 19.492188 0.367188 17.25 0.84375 14.59375 0.84375 C 11.226562 0.84375 8.554688 -0.0976562 6.578125 -1.984375 C 4.597656 -3.867188 3.609375 -6.390625 3.609375 -9.546875 C 3.609375 -13.242188 4.84375 -16.03125 7.3125 -17.90625 C 9.78125 -19.78125 13.46875 -20.71875 18.375 -20.71875 L 25.921875 -20.71875 L 25.921875 -21.234375 C 25.921875 -23.722656 25.101562 -25.644531 23.46875 -27 C 21.84375 -28.351562 19.554688 -29.03125 16.609375 -29.03125 C 14.734375 -29.03125 12.90625 -28.804688 11.125 -28.359375 C 9.351562 -27.910156 7.644531 -27.238281 6 -26.34375 L 6 -31.3125 C 7.976562 -32.082031 9.894531 -32.65625 11.75 -33.03125 C 13.601562 -33.414062 15.410156 -33.609375 17.171875 -33.609375 C 21.910156 -33.609375 25.453125 -32.375 27.796875 -29.90625 C 30.140625 -27.445312 31.3125 -23.71875 31.3125 -18.71875 Z M 31.3125 -18.71875 "/>
</g>
<g id="glyph-0-2">
<path d="M 5.65625 -32.8125 L 11.046875 -32.8125 L 11.046875 0 L 5.65625 0 Z M 5.65625 -45.59375 L 11.046875 -45.59375 L 11.046875 -38.765625 L 5.65625 -38.765625 Z M 5.65625 -45.59375 "/>
</g>
<g id="glyph-0-3">
<path d="M 5.65625 -45.59375 L 11.046875 -45.59375 L 11.046875 0 L 5.65625 0 Z M 5.65625 -45.59375 "/>
</g>
<g id="glyph-0-4">
<path d="M 33.71875 -17.75 L 33.71875 -15.125 L 8.9375 -15.125 C 9.164062 -11.40625 10.28125 -8.570312 12.28125 -6.625 C 14.289062 -4.6875 17.082031 -3.71875 20.65625 -3.71875 C 22.726562 -3.71875 24.734375 -3.972656 26.671875 -4.484375 C 28.617188 -4.992188 30.550781 -5.753906 32.46875 -6.765625 L 32.46875 -1.671875 C 30.53125 -0.847656 28.546875 -0.222656 26.515625 0.203125 C 24.484375 0.628906 22.421875 0.84375 20.328125 0.84375 C 15.097656 0.84375 10.953125 -0.675781 7.890625 -3.71875 C 4.835938 -6.769531 3.3125 -10.890625 3.3125 -16.078125 C 3.3125 -21.453125 4.757812 -25.71875 7.65625 -28.875 C 10.5625 -32.03125 14.472656 -33.609375 19.390625 -33.609375 C 23.804688 -33.609375 27.296875 -32.1875 29.859375 -29.34375 C 32.429688 -26.5 33.71875 -22.632812 33.71875 -17.75 Z M 28.328125 -19.34375 C 28.285156 -22.289062 27.457031 -24.640625 25.84375 -26.390625 C 24.238281 -28.148438 22.109375 -29.03125 19.453125 -29.03125 C 16.441406 -29.03125 14.03125 -28.179688 12.21875 -26.484375 C 10.414062 -24.785156 9.378906 -22.394531 9.109375 -19.3125 Z M 28.328125 -19.34375 "/>
</g>
<g id="glyph-0-5">
<path d="M 26.578125 -31.84375 L 26.578125 -26.75 C 25.046875 -27.53125 23.457031 -28.113281 21.8125 -28.5 C 20.175781 -28.894531 18.484375 -29.09375 16.734375 -29.09375 C 14.054688 -29.09375 12.046875 -28.679688 10.703125 -27.859375 C 9.367188 -27.035156 8.703125 -25.804688 8.703125 -24.171875 C 8.703125 -22.921875 9.179688 -21.9375 10.140625 -21.21875 C 11.097656 -20.507812 13.019531 -19.832031 15.90625 -19.1875 L 17.75 -18.78125 C 21.582031 -17.957031 24.300781 -16.796875 25.90625 -15.296875 C 27.519531 -13.804688 28.328125 -11.722656 28.328125 -9.046875 C 28.328125 -6.003906 27.117188 -3.59375 24.703125 -1.8125 C 22.296875 -0.0390625 18.984375 0.84375 14.765625 0.84375 C 13.003906 0.84375 11.171875 0.671875 9.265625 0.328125 C 7.367188 -0.00390625 5.363281 -0.515625 3.25 -1.203125 L 3.25 -6.765625 C 5.238281 -5.734375 7.203125 -4.957031 9.140625 -4.4375 C 11.078125 -3.914062 12.992188 -3.65625 14.890625 -3.65625 C 17.421875 -3.65625 19.367188 -4.085938 20.734375 -4.953125 C 22.109375 -5.828125 22.796875 -7.054688 22.796875 -8.640625 C 22.796875 -10.109375 22.300781 -11.234375 21.3125 -12.015625 C 20.320312 -12.796875 18.160156 -13.546875 14.828125 -14.265625 L 12.953125 -14.703125 C 9.609375 -15.410156 7.191406 -16.488281 5.703125 -17.9375 C 4.222656 -19.394531 3.484375 -21.394531 3.484375 -23.9375 C 3.484375 -27.019531 4.578125 -29.398438 6.765625 -31.078125 C 8.953125 -32.765625 12.054688 -33.609375 16.078125 -33.609375 C 18.078125 -33.609375 19.953125 -33.457031 21.703125 -33.15625 C 23.460938 -32.863281 25.085938 -32.425781 26.578125 -31.84375 Z M 26.578125 -31.84375 "/>
</g>
<g id="glyph-0-6">
<path d="M 5.890625 -43.734375 L 13.859375 -43.734375 L 33.25 -7.15625 L 33.25 -43.734375 L 39 -43.734375 L 39 0 L 31.03125 0 L 11.625 -36.59375 L 11.625 0 L 5.890625 0 Z M 5.890625 -43.734375 "/>
</g>
<g id="glyph-0-7">
<path d="M 18.375 -29.03125 C 15.476562 -29.03125 13.191406 -27.898438 11.515625 -25.640625 C 9.835938 -23.390625 9 -20.300781 9 -16.375 C 9 -12.445312 9.832031 -9.351562 11.5 -7.09375 C 13.164062 -4.84375 15.457031 -3.71875 18.375 -3.71875 C 21.238281 -3.71875 23.507812 -4.847656 25.1875 -7.109375 C 26.875 -9.378906 27.71875 -12.46875 27.71875 -16.375 C 27.71875 -20.257812 26.875 -23.335938 25.1875 -25.609375 C 23.507812 -27.890625 21.238281 -29.03125 18.375 -29.03125 Z M 18.375 -33.609375 C 23.0625 -33.609375 26.738281 -32.082031 29.40625 -29.03125 C 32.082031 -25.988281 33.421875 -21.769531 33.421875 -16.375 C 33.421875 -11.007812 32.082031 -6.796875 29.40625 -3.734375 C 26.738281 -0.679688 23.0625 0.84375 18.375 0.84375 C 13.664062 0.84375 9.976562 -0.679688 7.3125 -3.734375 C 4.644531 -6.796875 3.3125 -11.007812 3.3125 -16.375 C 3.3125 -21.769531 4.644531 -25.988281 7.3125 -29.03125 C 9.976562 -32.082031 13.664062 -33.609375 18.375 -33.609375 Z M 18.375 -33.609375 "/>
</g>
<g id="glyph-0-8">
<path d="M 10.984375 -42.125 L 10.984375 -32.8125 L 22.09375 -32.8125 L 22.09375 -28.625 L 10.984375 -28.625 L 10.984375 -10.8125 C 10.984375 -8.132812 11.347656 -6.414062 12.078125 -5.65625 C 12.816406 -4.894531 14.304688 -4.515625 16.546875 -4.515625 L 22.09375 -4.515625 L 22.09375 0 L 16.546875 0 C 12.390625 0 9.519531 -0.773438 7.9375 -2.328125 C 6.351562 -3.878906 5.5625 -6.707031 5.5625 -10.8125 L 5.5625 -28.625 L 1.609375 -28.625 L 1.609375 -32.8125 L 5.5625 -32.8125 L 5.5625 -42.125 Z M 10.984375 -42.125 "/>
</g>
<g id="glyph-0-9">
<path d="M 20.515625 -37.90625 L 12.484375 -16.140625 L 28.5625 -16.140625 Z M 17.171875 -43.734375 L 23.875 -43.734375 L 40.546875 0 L 34.390625 0 L 30.40625 -11.21875 L 10.6875 -11.21875 L 6.703125 0 L 0.46875 0 Z M 17.171875 -43.734375 "/>
</g>
<g id="glyph-0-10">
<path d="M 32.9375 -19.8125 L 32.9375 0 L 27.546875 0 L 27.546875 -19.625 C 27.546875 -22.726562 26.9375 -25.050781 25.71875 -26.59375 C 24.507812 -28.144531 22.695312 -28.921875 20.28125 -28.921875 C 17.363281 -28.921875 15.066406 -27.988281 13.390625 -26.125 C 11.710938 -24.269531 10.875 -21.742188 10.875 -18.546875 L 10.875 0 L 5.453125 0 L 5.453125 -32.8125 L 10.875 -32.8125 L 10.875 -27.71875 C 12.15625 -29.6875 13.671875 -31.160156 15.421875 -32.140625 C 17.171875 -33.117188 19.1875 -33.609375 21.46875 -33.609375 C 25.238281 -33.609375 28.09375 -32.441406 30.03125 -30.109375 C 31.96875 -27.773438 32.9375 -24.34375 32.9375 -19.8125 Z M 32.9375 -19.8125 "/>
</g>
</g>
</defs>
<g fill="rgb(0%, 0%, 0%)" fill-opacity="1">
<use xlink:href="#glyph-0-0" x="0" y="50"/>
<use xlink:href="#glyph-0-1" x="46.201172" y="50"/>
<use xlink:href="#glyph-0-2" x="82.96875" y="50"/>
<use xlink:href="#glyph-0-3" x="99.638672" y="50"/>
<use xlink:href="#glyph-0-2" x="116.308594" y="50"/>
<use xlink:href="#glyph-0-4" x="132.978516" y="50"/>
<use xlink:href="#glyph-0-5" x="169.892578" y="50"/>
</g>
<g fill="rgb(0%, 0%, 0%)" fill-opacity="1">
<use xlink:href="#glyph-0-6" x="0" y="120"/>
<use xlink:href="#glyph-0-7" x="44.882812" y="120"/>
<use xlink:href="#glyph-0-8" x="81.591797" y="120"/>
<use xlink:href="#glyph-0-4" x="105.117188" y="120"/>
<use xlink:href="#glyph-0-5" x="142.03125" y="120"/>
</g>
<g fill="rgb(0%, 0%, 0%)" fill-opacity="1">
<use xlink:href="#glyph-0-9" x="0" y="180"/>
<use xlink:href="#glyph-0-5" x="41.044922" y="180"/>
<use xlink:href="#glyph-0-5" x="72.304688" y="180"/>
<use xlink:href="#glyph-0-2" x="103.564453" y="180"/>
<use xlink:href="#glyph-0-5" x="120.234375" y="180"/>
<use xlink:href="#glyph-0-8" x="151.494141" y="180"/>
<use xlink:href="#glyph-0-1" x="175.019531" y="180"/>
<use xlink:href="#glyph-0-10" x="211.787109" y="180"/>
<use xlink:href="#glyph-0-8" x="249.814453" y="180"/>
</g>
</svg>
